src/assets/images/course/software-dev.svg

<?xml version="1.0" encoding="UTF-8" standalone="no"?>
<svg
   xmlns:dc="http://purl.org/dc/elements/1.1/"
   xmlns:cc="http://creativecommons.org/ns#"
   xmlns:rdf="http://www.w3.org/1999/02/22-rdf-syntax-ns#"
   xmlns:svg="http://www.w3.org/2000/svg"
   xmlns="http://www.w3.org/2000/svg"
   xmlns:sodipodi="http://sodipodi.sourceforge.net/DTD/sodipodi-0.dtd"
   xmlns:inkscape="http://www.inkscape.org/namespaces/inkscape"
   version="1.1"
   x="0px"
   y="0px"
   viewBox="0 0 180 180"
   enable-background="new 0 0 48 48"
   xml:space="preserve"
   id="svg2"
   inkscape:version="0.48.4 r9939"
   width="100%"
   height="100%"
   sodipodi:docname="software-dev.svg"><metadata
     id="metadata30"><rdf:RDF><cc:Work
         rdf:about=""><dc:format>image/svg+xml</dc:format><dc:type
           rdf:resource="http://purl.org/dc/dcmitype/StillImage" /></cc:Work></rdf:RDF></metadata><defs
     id="defs28" /><sodipodi:namedview
     pagecolor="#ffffff"
     bordercolor="#666666"
     borderopacity="1"
     objecttolerance="10"
     gridtolerance="10"
     guidetolerance="10"
     inkscape:pageopacity="0"
     inkscape:pageshadow="2"
     inkscape:window-width="1366"
     inkscape:window-height="744"
     id="namedview26"
     showgrid="false"
     inkscape:zoom="1.834929"
     inkscape:cx="28.244531"
     inkscape:cy="13.827634"
     inkscape:window-x="0"
     inkscape:window-y="24"
     inkscape:window-maximized="1"
     inkscape:current-layer="svg2" /><g
     id="g3179"
     style="fill:#f44336;fill-opacity:1"><path
       id="rect8"
       d="M 72.75 47.0625 A 3.750375 3.750375 0 0 0 69 50.8125 L 69 117.5625 A 3.750375 3.750375 0 0 0 72.75 121.3125 L 120.75 121.3125 L 120.75 138.1875 L 105.75 138.1875 A 3.750375 3.750375 0 0 0 105.375 138.1875 A 3.7546846 3.7546846 0 1 0 105.75 145.6875 L 124.03125 145.6875 C 124.18949 145.71084 124.33842 145.75 124.5 145.75 C 124.66158 145.75 124.81051 145.71084 124.96875 145.6875 L 143.25 145.6875 A 3.750375 3.750375 0 1 0 143.25 138.1875 L 128.25 138.1875 L 128.25 121.3125 L 176.25 121.3125 A 3.750375 3.750375 0 0 0 180 117.5625 L 180 50.8125 A 3.750375 3.750375 0 0 0 176.25 47.0625 L 72.75 47.0625 z M 76.5 54.5625 L 172.5 54.5625 L 172.5 113.8125 L 76.5 113.8125 L 76.5 54.5625 z "
       style="font-size:medium;font-style:normal;font-variant:normal;font-weight:normal;font-stretch:normal;text-indent:0;text-align:start;text-decoration:none;line-height:normal;letter-spacing:normal;word-spacing:normal;text-transform:none;direction:ltr;block-progression:tb;writing-mode:lr-tb;text-anchor:start;baseline-shift:baseline;color:#000000;fill:#f44336;fill-opacity:1;stroke:none;stroke-width:7.50000000000000000;marker:none;visibility:visible;display:inline;overflow:visible;enable-background:accumulate;font-family:Sans;-inkscape-font-specification:Sans" /><path
       id="rect14"
       d="M 3.75 33.9375 A 3.750375 3.750375 0 0 0 0 37.6875 L 0 142.3125 A 3.750375 3.750375 0 0 0 3.75 146.0625 L 55.875 146.0625 A 3.750375 3.750375 0 0 0 59.625 142.3125 L 59.625 37.6875 A 3.750375 3.750375 0 0 0 55.875 33.9375 L 3.75 33.9375 z M 7.5 41.4375 L 52.125 41.4375 L 52.125 138.5625 L 7.5 138.5625 L 7.5 41.4375 z M 16.875 48.9375 A 3.7546846 3.7546846 0 1 0 17.25 56.4375 L 40.125 56.4375 A 3.750375 3.750375 0 1 0 40.125 48.9375 L 17.25 48.9375 A 3.750375 3.750375 0 0 0 16.875 48.9375 z M 16.875 61.6875 A 3.7546846 3.7546846 0 1 0 17.25 69.1875 L 40.125 69.1875 A 3.750375 3.750375 0 1 0 40.125 61.6875 L 17.25 61.6875 A 3.750375 3.750375 0 0 0 16.875 61.6875 z M 29.65625 118.625 C 25.950537 118.625 22.84375 121.73179 22.84375 125.4375 C 22.84375 129.14321 25.950537 132.21875 29.65625 132.21875 C 33.361964 132.21875 36.3125 129.14321 36.3125 125.4375 C 36.3125 121.73179 33.361964 118.625 29.65625 118.625 z "
       style="font-size:medium;font-style:normal;font-variant:normal;font-weight:normal;font-stretch:normal;text-indent:0;text-align:start;text-decoration:none;line-height:normal;letter-spacing:normal;word-spacing:normal;text-transform:none;direction:ltr;block-progression:tb;writing-mode:lr-tb;text-anchor:start;baseline-shift:baseline;color:#000000;fill:#f44336;fill-opacity:1;stroke:none;stroke-width:7.50000000000000000;marker:none;visibility:visible;display:inline;overflow:visible;enable-background:accumulate;font-family:Sans;-inkscape-font-specification:Sans" /></g></svg>

<svg xmlns="http://www.w3.org/2000/svg" viewBox="0 0 180 180"><g fill="#f44336" color="#000" font-family="Sans"><path d="M72.75 47.063a3.75 3.75 0 0 0-3.75 3.75v66.75a3.75 3.75 0 0 0 3.75 3.75h48v16.874h-15a3.75 3.75 0 0 0-.375 0 3.755 3.755 0 1 0 .375 7.5h18.28c.16.024.308.063.47.063.162 0 .31-.04.47-.063h18.28a3.75 3.75 0 1 0 0-7.5h-15v-16.875h48a3.75 3.75 0 0 0 3.75-3.75v-66.75a3.75 3.75 0 0 0-3.75-3.75H72.75zm3.75 7.5h96v59.25h-96v-59.25zM3.75 33.938A3.75 3.75 0 0 0 0 37.688V142.31a3.75 3.75 0 0 0 3.75 3.75h52.125a3.75 3.75 0 0 0 3.75-3.75V37.688a3.75 3.75 0 0 0-3.75-3.75H3.75zm3.75 7.5h44.625v97.124H7.5V41.438zm9.375 7.5a3.755 3.755 0 1 0 .375 7.5h22.875a3.75 3.75 0 1 0 0-7.5H17.25a3.75 3.75 0 0 0-.375 0zm0 12.75a3.755 3.755 0 1 0 .375 7.5h22.875a3.75 3.75 0 1 0 0-7.5H17.25a3.75 3.75 0 0 0-.375 0zm12.78 56.937c-3.704 0-6.81 3.107-6.81 6.813 0 3.705 3.106 6.78 6.81 6.78 3.707 0 6.657-3.075 6.657-6.78 0-3.706-2.95-6.813-6.656-6.813z" style="text-indent:0;text-align:start;line-height:normal;text-transform:none;block-progression:tb;-inkscape-font-specification:Sans" overflow="visible"/></g></svg>
